X:51
T:Steyrer Tanz in G, nr. 7
C:traditionell
R:Steirer
A:Hallstatt, Salzkammergut
B:Corpus Musicae Popularis Austriacae (COMPA), 5.Band: J.M.Schmalnauer " Tanz Musik", Verlag Boehlau, Wien 1996
S:manuscript des Johann Michael Schmalnauer um 1820
N:im der quelle in G
Z:abc transcription Simon Wascher
F:http://simonwascher.info/TradArchiv/
M:3/4
L:1/8
K:G
V:1
%violino 1mo
P:h.Ap:
defgab | cc' a3 g | gfcf Af | gabg d2 |\
defgab | cc' a3 g | gfcf Af | g2 G4 :|
V:2
%violino 2do
(d^c)(de)fg | Aa f3 e | edAdFA | Bdgd B2 |\
(d^c)(de)fg | Aa f3 e | edAdFA | B4 :|
